app/assets/images/idv/mobile-phone-icon.svg

<svg width="100" height="101" viewBox="0 0 100 101" fill="none" xmlns="http://www.w3.org/2000/svg">
<g filter="url(#filter0_d_10715_6325)">
<path d="M50 94.9688C74.3005 94.9688 94 75.2693 94 50.9688C94 26.6682 74.3005 6.96875 50 6.96875C25.6995 6.96875 6 26.6682 6 50.9688C6 75.2693 25.6995 94.9688 50 94.9688Z" fill="white"/>
</g>
<path d="M49.9999 90.5687C71.8704 90.5687 89.5999 72.8391 89.5999 50.9687C89.5999 29.0982 71.8704 11.3687 49.9999 11.3687C28.1294 11.3687 10.3999 29.0982 10.3999 50.9687C10.3999 72.8391 28.1294 90.5687 49.9999 90.5687Z" fill="#5D8EBA"/>
<path d="M50.0004 86.6089C69.6838 86.6089 85.6404 70.6523 85.6404 50.9689C85.6404 31.2854 69.6838 15.3289 50.0004 15.3289C30.3169 15.3289 14.3604 31.2854 14.3604 50.9689C14.3604 70.6523 30.3169 86.6089 50.0004 86.6089Z" fill="white"/>
<mask id="mask0_10715_6325" style="mask-type:alpha" maskUnits="userSpaceOnUse" x="14" y="15" width="72" height="72">
<path d="M50.0004 86.6089C69.6838 86.6089 85.6404 70.6523 85.6404 50.9689C85.6404 31.2854 69.6838 15.3289 50.0004 15.3289C30.3169 15.3289 14.3604 31.2854 14.3604 50.9689C14.3604 70.6523 30.3169 86.6089 50.0004 86.6089Z" fill="white"/>
</mask>
<g mask="url(#mask0_10715_6325)">
<path d="M33.5112 27.317C33.2346 27.317 33.0083 27.0907 33.0083 26.8141V18.5698C33.0083 18.2932 33.2346 18.0669 33.5112 18.0669C33.7877 18.0669 34.014 18.2932 34.014 18.5698V26.8141C34.014 27.0907 33.7877 27.317 33.5112 27.317Z" fill="#F5D60C"/>
<path d="M30.3107 28.642C30.1825 28.642 30.0543 28.5918 29.9562 28.4937L24.1256 22.6631C23.9295 22.467 23.9295 22.1476 24.1256 21.9515C24.3217 21.7554 24.641 21.7554 24.8371 21.9515L30.6678 27.7822C30.8639 27.9783 30.8639 28.2976 30.6678 28.4937C30.5697 28.5918 30.4415 28.642 30.3133 28.642H30.3107Z" fill="#F5D60C"/>
<path d="M28.9855 31.8426H20.7411C20.4646 31.8426 20.2383 31.6163 20.2383 31.3398C20.2383 31.0632 20.4646 30.8369 20.7411 30.8369H28.9855C29.2621 30.8369 29.4883 31.0632 29.4883 31.3398C29.4883 31.6163 29.2621 31.8426 28.9855 31.8426Z" fill="#F5D60C"/>
<path d="M24.4821 40.8715C24.3538 40.8715 24.2256 40.8213 24.1276 40.7232C23.9314 40.5271 23.9314 40.2078 24.1276 40.0117L29.9582 34.181C30.1543 33.9849 30.4736 33.9849 30.6697 34.181C30.8658 34.3771 30.8658 34.6964 30.6697 34.8926L24.8391 40.7232C24.741 40.8213 24.6128 40.8715 24.4846 40.8715H24.4821Z" fill="#F5D60C"/>
<path d="M33.5112 44.6126C33.2346 44.6126 33.0083 44.3863 33.0083 44.1097V35.8654C33.0083 35.5888 33.2346 35.3625 33.5112 35.3625C33.7877 35.3625 34.014 35.5888 34.014 35.8654V44.1097C34.014 44.3863 33.7877 44.6126 33.5112 44.6126Z" fill="#F5D60C"/>
<path d="M42.5402 40.8715C42.412 40.8715 42.2838 40.8213 42.1857 40.7232L36.3551 34.8926C36.159 34.6964 36.159 34.3771 36.3551 34.181C36.5512 33.9849 36.8705 33.9849 37.0666 34.181L42.8973 40.0117C43.0934 40.2078 43.0934 40.5271 42.8973 40.7232C42.7992 40.8213 42.671 40.8715 42.5428 40.8715H42.5402Z" fill="#F5D60C"/>
<path d="M46.2814 31.8426H38.037C37.7605 31.8426 37.5342 31.6163 37.5342 31.3398C37.5342 31.0632 37.7605 30.8369 38.037 30.8369H46.2814C46.5579 30.8369 46.7842 31.0632 46.7842 31.3398C46.7842 31.6163 46.5579 31.8426 46.2814 31.8426Z" fill="#F5D60C"/>
<path d="M36.7116 28.642C36.5833 28.642 36.4551 28.5918 36.357 28.4937C36.1609 28.2976 36.1609 27.9783 36.357 27.7822L42.1877 21.9515C42.3838 21.7554 42.7031 21.7554 42.8992 21.9515C43.0953 22.1476 43.0953 22.467 42.8992 22.6631L37.0686 28.4937C36.9705 28.5918 36.8423 28.642 36.7141 28.642H36.7116Z" fill="#F5D60C"/>
<path d="M30.9137 25.5721C30.7151 25.5721 30.529 25.4539 30.4486 25.2603L29.0255 21.8258C28.9199 21.5693 29.0406 21.2751 29.297 21.1695C29.5535 21.0639 29.8477 21.1846 29.9533 21.4411L31.3764 24.8756C31.482 25.1321 31.3613 25.4262 31.1048 25.5318C31.042 25.557 30.9766 25.5695 30.9137 25.5695V25.5721Z" fill="#CAB32D"/>
<path d="M27.2382 29.2455C27.1753 29.2455 27.1099 29.2329 27.0471 29.2077L23.6126 27.7847C23.3561 27.6791 23.2329 27.3849 23.341 27.1284C23.4466 26.872 23.7408 26.7488 23.9972 26.8569L27.4318 28.28C27.6882 28.3856 27.8114 28.6797 27.7033 28.9362C27.6228 29.1298 27.4368 29.248 27.2382 29.248V29.2455Z" fill="#CAB32D"/>
<path d="M23.8036 35.8631C23.605 35.8631 23.4189 35.745 23.3385 35.5514C23.2329 35.2949 23.3536 35.0007 23.61 34.8951L27.0445 33.472C27.301 33.3664 27.5952 33.4871 27.7008 33.7436C27.8064 34 27.6857 34.2942 27.4292 34.3998L23.9947 35.8229C23.9319 35.848 23.8665 35.8606 23.8036 35.8606V35.8631Z" fill="#CAB32D"/>
<path d="M29.4911 41.5503C29.4283 41.5503 29.3629 41.5377 29.3001 41.5125C29.0436 41.4069 28.9204 41.1128 29.0285 40.8563L30.4516 37.4218C30.5572 37.1653 30.8514 37.0447 31.1078 37.1503C31.3643 37.2559 31.4875 37.55 31.3794 37.8065L29.9563 41.241C29.8758 41.4346 29.6898 41.5528 29.4911 41.5528V41.5503Z" fill="#CAB32D"/>
<path d="M37.5309 41.5503C37.3323 41.5503 37.1462 41.4322 37.0658 41.2386L35.6427 37.804C35.5371 37.5476 35.6578 37.2534 35.9142 37.1478C36.1707 37.0422 36.4649 37.1629 36.5705 37.4194L37.9935 40.8539C38.0991 41.1103 37.9785 41.4045 37.722 41.5101C37.6591 41.5352 37.5938 41.5478 37.5309 41.5478V41.5503Z" fill="#CAB32D"/>
<path d="M43.2185 35.863C43.1557 35.863 43.0903 35.8505 43.0275 35.8253L39.5929 34.4023C39.3365 34.2967 39.2158 34.0025 39.3214 33.746C39.427 33.4896 39.7212 33.3689 39.9776 33.4745L43.4121 34.8976C43.6686 35.0032 43.7893 35.2973 43.6837 35.5538C43.6032 35.7474 43.4172 35.8656 43.2185 35.8656V35.863Z" fill="#CAB32D"/>
<path d="M39.7841 29.2454C39.5855 29.2454 39.3994 29.1273 39.319 28.9337C39.2134 28.6772 39.334 28.383 39.5905 28.2774L43.025 26.8544C43.2815 26.7488 43.5756 26.8694 43.6812 27.1259C43.7868 27.3824 43.6662 27.6765 43.4097 27.7821L39.9752 29.2052C39.9123 29.2304 39.847 29.2429 39.7841 29.2429V29.2454Z" fill="#CAB32D"/>
<path d="M36.1082 25.572C36.0454 25.572 35.98 25.5594 35.9172 25.5343C35.6607 25.4287 35.54 25.1345 35.6456 24.878L37.0687 21.4435C37.1743 21.1871 37.4685 21.0664 37.7249 21.172C37.9814 21.2776 38.1021 21.5718 37.9965 21.8282L36.5734 25.2627C36.4929 25.4563 36.3069 25.5745 36.1082 25.5745V25.572Z" fill="#CAB32D"/>
<path d="M47.2345 21.964C47.2345 20.4354 45.9974 19.1983 44.4688 19.1983C45.9974 19.1983 47.2345 17.9613 47.2345 16.4326C47.2345 17.9613 48.4715 19.1983 50.0002 19.1983C48.4715 19.1983 47.2345 20.4354 47.2345 21.964Z" fill="#F5D60C"/>
<path d="M20.9829 50.3379C20.9829 48.3943 19.4064 46.8179 17.4629 46.8179C19.4064 46.8179 20.9829 45.2414 20.9829 43.2979C20.9829 45.2414 22.5593 46.8179 24.5029 46.8179C22.5593 46.8179 20.9829 48.3943 20.9829 50.3379Z" fill="#F5D60C"/>
<path d="M64.081 27.5859H35.921C32.5884 27.5859 29.8867 30.2876 29.8867 33.6202V91.9517C29.8867 95.2843 32.5884 97.9859 35.921 97.9859H64.081C67.4137 97.9859 70.1153 95.2843 70.1153 91.9517V33.6202C70.1153 30.2876 67.4137 27.5859 64.081 27.5859Z" fill="#C8D3DD"/>
<path d="M64.0804 98.9918H35.9204C32.0383 98.9918 28.8804 95.8338 28.8804 91.9518V33.6203C28.8804 29.7383 32.0383 26.5803 35.9204 26.5803H64.0804C67.9624 26.5803 71.1204 29.7383 71.1204 33.6203V91.9518C71.1204 95.8338 67.9624 98.9918 64.0804 98.9918ZM35.9204 28.5918C33.1471 28.5918 30.8918 30.8471 30.8918 33.6203V91.9518C30.8918 94.725 33.1471 96.9803 35.9204 96.9803H64.0804C66.8536 96.9803 69.1089 94.725 69.1089 91.9518V33.6203C69.1089 30.8471 66.8536 28.5918 64.0804 28.5918H35.9204Z" fill="#1B1B1B"/>
<path d="M47.4862 30.603H35.9205C34.2541 30.603 32.9033 31.9538 32.9033 33.6202V45.1859C32.9033 46.8522 34.2541 48.203 35.9205 48.203H47.4862C49.1525 48.203 50.5033 46.8522 50.5033 45.1859V33.6202C50.5033 31.9538 49.1525 30.603 47.4862 30.603Z" fill="#EDF3FB"/>
<path d="M47.486 49.2088H35.9203C33.7027 49.2088 31.8975 47.4036 31.8975 45.186V33.6203C31.8975 31.4027 33.7027 29.5974 35.9203 29.5974H47.486C49.7036 29.5974 51.5089 31.4027 51.5089 33.6203V45.186C51.5089 47.4036 49.7036 49.2088 47.486 49.2088ZM35.9203 31.6088C34.8115 31.6088 33.9089 32.5115 33.9089 33.6203V45.186C33.9089 46.2948 34.8115 47.1974 35.9203 47.1974H47.486C48.5948 47.1974 49.4975 46.2948 49.4975 45.186V33.6203C49.4975 32.5115 48.5948 31.6088 47.486 31.6088H35.9203Z" fill="#1B1B1B"/>
<path d="M45.7258 37.1404C46.6978 37.1404 47.4858 36.3524 47.4858 35.3804C47.4858 34.4083 46.6978 33.6204 45.7258 33.6204C44.7538 33.6204 43.9658 34.4083 43.9658 35.3804C43.9658 36.3524 44.7538 37.1404 45.7258 37.1404Z" fill="white"/>
<path d="M45.726 37.5175C44.5468 37.5175 43.5889 36.5595 43.5889 35.3803C43.5889 34.2011 44.5468 33.2432 45.726 33.2432C46.9052 33.2432 47.8632 34.2011 47.8632 35.3803C47.8632 36.5595 46.9052 37.5175 45.726 37.5175ZM45.726 33.9974C44.9642 33.9974 44.3432 34.6185 44.3432 35.3803C44.3432 36.1421 44.9642 36.7632 45.726 36.7632C46.4878 36.7632 47.1089 36.1421 47.1089 35.3803C47.1089 34.6185 46.4878 33.9974 45.726 33.9974Z" fill="#1B1B1B"/>
<path d="M37.6798 38.1462C39.2072 38.1462 40.4455 36.9079 40.4455 35.3805C40.4455 33.853 39.2072 32.6147 37.6798 32.6147C36.1523 32.6147 34.9141 33.853 34.9141 35.3805C34.9141 36.9079 36.1523 38.1462 37.6798 38.1462Z" fill="#939598"/>
<path d="M37.6802 38.649C35.8774 38.649 34.4116 37.1831 34.4116 35.3804C34.4116 33.5776 35.8774 32.1118 37.6802 32.1118C39.4829 32.1118 40.9488 33.5776 40.9488 35.3804C40.9488 37.1831 39.4829 38.649 37.6802 38.649ZM37.6802 33.1175C36.4331 33.1175 35.4173 34.1333 35.4173 35.3804C35.4173 36.6275 36.4331 37.6432 37.6802 37.6432C38.9273 37.6432 39.943 36.6275 39.943 35.3804C39.943 34.1333 38.9273 33.1175 37.6802 33.1175Z" fill="#1B1B1B"/>
<path d="M37.68 44.6832C38.3743 44.6832 38.9371 44.1204 38.9371 43.4261C38.9371 42.7318 38.3743 42.1689 37.68 42.1689C36.9857 42.1689 36.4229 42.7318 36.4229 43.4261C36.4229 44.1204 36.9857 44.6832 37.68 44.6832Z" fill="white"/>
<path d="M37.6802 45.0603C36.7801 45.0603 36.0459 44.3261 36.0459 43.426C36.0459 42.5259 36.7801 41.7917 37.6802 41.7917C38.5803 41.7917 39.3145 42.5259 39.3145 43.426C39.3145 44.3261 38.5803 45.0603 37.6802 45.0603ZM37.6802 42.546C37.1949 42.546 36.8002 42.9408 36.8002 43.426C36.8002 43.9113 37.1949 44.306 37.6802 44.306C38.1654 44.306 38.5602 43.9113 38.5602 43.426C38.5602 42.9408 38.1654 42.546 37.6802 42.546Z" fill="#1B1B1B"/>
<path d="M45.7257 46.1918C47.2531 46.1918 48.4914 44.9536 48.4914 43.4261C48.4914 41.8987 47.2531 40.6604 45.7257 40.6604C44.1982 40.6604 42.96 41.8987 42.96 43.4261C42.96 44.9536 44.1982 46.1918 45.7257 46.1918Z" fill="#939598"/>
<path d="M45.7261 46.6946C43.9233 46.6946 42.4575 45.2288 42.4575 43.426C42.4575 41.6233 43.9233 40.1575 45.7261 40.1575C47.5288 40.1575 48.9947 41.6233 48.9947 43.426C48.9947 45.2288 47.5288 46.6946 45.7261 46.6946ZM45.7261 41.1632C44.479 41.1632 43.4632 42.179 43.4632 43.426C43.4632 44.6731 44.479 45.6889 45.7261 45.6889C46.9732 45.6889 47.9889 44.6731 47.9889 43.426C47.9889 42.179 46.9732 41.1632 45.7261 41.1632Z" fill="#1B1B1B"/>
<path d="M70.1143 48.2031H70.6171C70.8937 48.2031 71.12 48.4294 71.12 48.706V52.7288C71.12 53.0054 70.8937 53.2317 70.6171 53.2317H70.1143V48.2031Z" fill="#BCBEC0"/>
<path d="M70.6173 53.6088H69.7373V47.8259H70.6173C71.1026 47.8259 71.4973 48.2207 71.4973 48.7059V52.7288C71.4973 53.214 71.1026 53.6088 70.6173 53.6088ZM70.4916 52.8545H70.6173C70.6877 52.8545 70.743 52.7992 70.743 52.7288V48.7059C70.743 48.6355 70.6877 48.5802 70.6173 48.5802H70.4916V52.8545Z" fill="#1B1B1B"/>
<path d="M70.1143 54.4888H70.6171C70.8937 54.4888 71.12 54.7151 71.12 54.9916V59.0145C71.12 59.2911 70.8937 59.5173 70.6171 59.5173H70.1143V54.4888Z" fill="#BCBEC0"/>
<path d="M70.6173 59.8944H69.7373V54.1116H70.6173C71.1026 54.1116 71.4973 54.5063 71.4973 54.9916V59.0144C71.4973 59.4997 71.1026 59.8944 70.6173 59.8944ZM70.4916 59.1401H70.6173C70.6877 59.1401 70.743 59.0848 70.743 59.0144V54.9916C70.743 54.9212 70.6877 54.8659 70.6173 54.8659H70.4916V59.1401Z" fill="#1B1B1B"/>
<path d="M29.8862 58.2603H29.3834C29.1068 58.2603 28.8805 58.034 28.8805 57.7574V48.706C28.8805 48.4294 29.1068 48.2031 29.3834 48.2031H29.8862V58.2603Z" fill="#BCBEC0"/>
<path d="M30.2629 58.6374H29.3829C28.8977 58.6374 28.5029 58.2426 28.5029 57.7574V48.7059C28.5029 48.2207 28.8977 47.8259 29.3829 47.8259H30.2629V58.6374ZM29.3829 48.5802C29.3125 48.5802 29.2572 48.6355 29.2572 48.7059V57.7574C29.2572 57.8278 29.3125 57.8831 29.3829 57.8831H29.5086V48.5802H29.3829Z" fill="#1B1B1B"/>
</g>
<defs>
<filter id="filter0_d_10715_6325" x="0" y="0.96875" width="100" height="100" filterUnits="userSpaceOnUse" color-interpolation-filters="sRGB">
<feFlood flood-opacity="0" result="BackgroundImageFix"/>
<feColorMatrix in="SourceAlpha" type="matrix" values="0 0 0 0 0 0 0 0 0 0 0 0 0 0 0 0 0 0 127 0" result="hardAlpha"/>
<feOffset/>
<feGaussianBlur stdDeviation="3"/>
<feComposite in2="hardAlpha" operator="out"/>
<feColorMatrix type="matrix" values="0 0 0 0 0 0 0 0 0 0 0 0 0 0 0 0 0 0 0.24 0"/>
<feBlend mode="normal" in2="BackgroundImageFix" result="effect1_dropShadow_10715_6325"/>
<feBlend mode="normal" in="SourceGraphic" in2="effect1_dropShadow_10715_6325" result="shape"/>
</filter>
</defs>
</svg>

<svg xmlns="http://www.w3.org/2000/svg" width="100" height="101" fill="none" viewBox="0 0 100 101"><g filter="url(#a)"><path fill="#fff" d="M50 94.969c24.3 0 44-19.7 44-44s-19.7-44-44-44-44 19.7-44 44 19.7 44 44 44"/></g><path fill="#5D8EBA" d="M50 90.569c21.87 0 39.6-17.73 39.6-39.6s-17.73-39.6-39.6-39.6-39.6 17.73-39.6 39.6 17.73 39.6 39.6 39.6"/><path fill="#fff" d="M50 86.609c19.684 0 35.64-15.957 35.64-35.64 0-19.684-15.956-35.64-35.64-35.64-19.683 0-35.64 15.956-35.64 35.64 0 19.683 15.957 35.64 35.64 35.64"/><mask id="b" width="72" height="72" x="14" y="15" maskUnits="userSpaceOnUse" style="mask-type:alpha"><path fill="#fff" d="M50 86.609c19.684 0 35.64-15.957 35.64-35.64 0-19.684-15.956-35.64-35.64-35.64-19.683 0-35.64 15.956-35.64 35.64 0 19.683 15.957 35.64 35.64 35.64"/></mask><g mask="url(#b)"><path fill="#F5D60C" d="M33.511 27.317a.504.504 0 0 1-.503-.503V18.57a.504.504 0 0 1 1.006 0v8.244a.504.504 0 0 1-.503.503m-3.201 1.325a.5.5 0 0 1-.354-.148l-5.83-5.83a.504.504 0 0 1 .711-.713l5.83 5.831a.504.504 0 0 1-.354.86zm-1.324 3.201H20.74a.504.504 0 0 1-.503-.503c0-.277.227-.503.503-.503h8.244c.277 0 .503.226.503.503a.504.504 0 0 1-.503.503m-4.502 9.029a.504.504 0 0 1-.354-.86l5.83-5.831a.504.504 0 0 1 .712.712l-5.83 5.83a.5.5 0 0 1-.355.148zm9.029 3.741a.504.504 0 0 1-.503-.503v-8.245c0-.276.227-.503.503-.503.277 0 .503.227.503.503v8.245a.504.504 0 0 1-.503.503m9.029-3.741a.5.5 0 0 1-.354-.149l-5.83-5.83a.504.504 0 0 1 .71-.712l5.831 5.83a.504.504 0 0 1-.354.86zm3.741-9.029h-8.244a.504.504 0 0 1-.503-.503c0-.277.227-.503.503-.503h8.244c.277 0 .503.226.503.503a.504.504 0 0 1-.503.503m-9.569-3.201a.504.504 0 0 1-.355-.86l5.83-5.83a.504.504 0 0 1 .712.711l-5.83 5.83a.5.5 0 0 1-.355.149z"/><path fill="#CAB32D" d="M30.914 25.572a.5.5 0 0 1-.465-.312l-1.424-3.434a.502.502 0 0 1 .928-.385l1.423 3.435a.502.502 0 0 1-.462.694zm-3.676 3.674a.5.5 0 0 1-.19-.038l-3.435-1.423a.5.5 0 0 1-.272-.657.5.5 0 0 1 .656-.271l3.435 1.423a.504.504 0 0 1-.194.968zm-3.434 6.617a.504.504 0 0 1-.194-.968l3.435-1.423a.502.502 0 0 1 .384.928l-3.434 1.423a.5.5 0 0 1-.191.038zm5.687 5.687a.5.5 0 0 1-.463-.694l1.424-3.434a.502.502 0 1 1 .927.385l-1.423 3.434a.5.5 0 0 1-.465.312zm8.039 0a.5.5 0 0 1-.464-.311l-1.423-3.435a.502.502 0 1 1 .928-.385l1.422 3.435a.502.502 0 0 1-.462.694zm5.689-5.687a.5.5 0 0 1-.191-.038l-3.435-1.423a.502.502 0 0 1 .385-.928l3.434 1.424a.502.502 0 0 1-.194.968zm-3.435-6.618a.504.504 0 0 1-.194-.968l3.435-1.423a.502.502 0 1 1 .385.928l-3.435 1.423a.5.5 0 0 1-.19.038zm-3.676-3.673a.502.502 0 0 1-.463-.694l1.424-3.434a.502.502 0 0 1 .927.384l-1.423 3.435a.5.5 0 0 1-.465.311z"/><path fill="#F5D60C" d="M47.235 21.964a2.764 2.764 0 0 0-2.766-2.766 2.764 2.764 0 0 0 2.765-2.765A2.764 2.764 0 0 0 50 19.198a2.764 2.764 0 0 0-2.766 2.766M20.983 50.338a3.52 3.52 0 0 0-3.52-3.52 3.52 3.52 0 0 0 3.52-3.52 3.52 3.52 0 0 0 3.52 3.52 3.52 3.52 0 0 0-3.52 3.52"/><path fill="#C8D3DD" d="M64.081 27.586h-28.16a6.034 6.034 0 0 0-6.034 6.034v58.332a6.034 6.034 0 0 0 6.034 6.034h28.16a6.034 6.034 0 0 0 6.034-6.034V33.62a6.034 6.034 0 0 0-6.034-6.034"/><path fill="#1B1B1B" d="M64.08 98.992H35.92a7.05 7.05 0 0 1-7.04-7.04V33.62a7.05 7.05 0 0 1 7.04-7.04h28.16a7.05 7.05 0 0 1 7.04 7.04v58.332a7.05 7.05 0 0 1-7.04 7.04m-28.16-70.4a5.034 5.034 0 0 0-5.028 5.028v58.332a5.034 5.034 0 0 0 5.028 5.028h28.16a5.034 5.034 0 0 0 5.029-5.028V33.62a5.034 5.034 0 0 0-5.029-5.028z"/><path fill="#EDF3FB" d="M47.486 30.603H35.921a3.017 3.017 0 0 0-3.018 3.017v11.566a3.017 3.017 0 0 0 3.017 3.017h11.566a3.017 3.017 0 0 0 3.017-3.017V33.62a3.017 3.017 0 0 0-3.017-3.017"/><path fill="#1B1B1B" d="M47.486 49.209H35.92a4.03 4.03 0 0 1-4.023-4.023V33.62a4.03 4.03 0 0 1 4.023-4.023h11.566a4.03 4.03 0 0 1 4.023 4.023v11.566a4.03 4.03 0 0 1-4.023 4.023m-11.566-17.6a2.014 2.014 0 0 0-2.011 2.011v11.566c0 1.109.903 2.011 2.011 2.011h11.566a2.014 2.014 0 0 0 2.012-2.011V33.62a2.014 2.014 0 0 0-2.012-2.011z"/><path fill="#fff" d="M45.726 37.14a1.76 1.76 0 1 0 0-3.52 1.76 1.76 0 0 0 0 3.52"/><path fill="#1B1B1B" d="M45.726 37.518a2.14 2.14 0 0 1-2.137-2.138c0-1.179.958-2.137 2.137-2.137s2.137.958 2.137 2.137-.958 2.137-2.137 2.137m0-3.52c-.762 0-1.383.62-1.383 1.382s.621 1.383 1.383 1.383 1.383-.62 1.383-1.383c0-.762-.621-1.383-1.383-1.383"/><path fill="#939598" d="M37.68 38.146a2.766 2.766 0 1 0 0-5.531 2.766 2.766 0 0 0 0 5.531"/><path fill="#1B1B1B" d="M37.68 38.649a3.27 3.27 0 0 1-3.268-3.269 3.27 3.27 0 0 1 3.268-3.268 3.27 3.27 0 0 1 3.269 3.268 3.27 3.27 0 0 1-3.269 3.269m0-5.532a2.266 2.266 0 0 0-2.263 2.263 2.266 2.266 0 0 0 2.263 2.263 2.266 2.266 0 0 0 2.263-2.263 2.266 2.266 0 0 0-2.263-2.263"/><path fill="#fff" d="M37.68 44.683a1.257 1.257 0 1 0 0-2.514 1.257 1.257 0 0 0 0 2.514"/><path fill="#1B1B1B" d="M37.68 45.06c-.9 0-1.634-.734-1.634-1.634s.734-1.634 1.634-1.634 1.635.734 1.635 1.634-.735 1.634-1.635 1.634m0-2.514a.881.881 0 0 0 0 1.76.881.881 0 0 0 0-1.76"/><path fill="#939598" d="M45.726 46.192a2.766 2.766 0 1 0 0-5.532 2.766 2.766 0 0 0 0 5.532"/><path fill="#1B1B1B" d="M45.726 46.695a3.27 3.27 0 0 1-3.268-3.269 3.27 3.27 0 0 1 3.268-3.269 3.27 3.27 0 0 1 3.269 3.269 3.27 3.27 0 0 1-3.269 3.269m0-5.532a2.266 2.266 0 0 0-2.263 2.263 2.266 2.266 0 0 0 2.263 2.263 2.266 2.266 0 0 0 2.263-2.263 2.266 2.266 0 0 0-2.263-2.263"/><path fill="#BCBEC0" d="M70.114 48.203h.503c.277 0 .503.226.503.503v4.023a.504.504 0 0 1-.503.503h-.503z"/><path fill="#1B1B1B" d="M70.617 53.609h-.88v-5.783h.88a.88.88 0 0 1 .88.88v4.023a.88.88 0 0 1-.88.88m-.125-.755h.125c.07 0 .126-.055.126-.125v-4.023a.124.124 0 0 0-.126-.126h-.125z"/><path fill="#BCBEC0" d="M70.114 54.489h.503c.277 0 .503.226.503.503v4.023a.504.504 0 0 1-.503.502h-.503z"/><path fill="#1B1B1B" d="M70.617 59.894h-.88v-5.782h.88a.88.88 0 0 1 .88.88v4.022a.88.88 0 0 1-.88.88m-.125-.754h.125c.07 0 .126-.055.126-.126v-4.022a.124.124 0 0 0-.126-.126h-.125z"/><path fill="#BCBEC0" d="M29.886 58.26h-.503a.504.504 0 0 1-.502-.503v-9.051c0-.277.226-.503.502-.503h.503z"/><path fill="#1B1B1B" d="M30.263 58.637h-.88a.88.88 0 0 1-.88-.88v-9.051c0-.485.395-.88.88-.88h.88zm-.88-10.057a.124.124 0 0 0-.126.126v9.051c0 .07.055.126.126.126h.126V48.58z"/></g><defs><filter id="a" width="100" height="100" x="0" y=".969" color-interpolation-filters="sRGB" filterUnits="userSpaceOnUse"><feFlood flood-opacity="0" result="BackgroundImageFix"/><feColorMatrix in="SourceAlpha" result="hardAlpha" values="0 0 0 0 0 0 0 0 0 0 0 0 0 0 0 0 0 0 127 0"/><feOffset/><feGaussianBlur stdDeviation="3"/><feComposite in2="hardAlpha" operator="out"/><feColorMatrix values="0 0 0 0 0 0 0 0 0 0 0 0 0 0 0 0 0 0 0.24 0"/><feBlend in2="BackgroundImageFix" result="effect1_dropShadow_10715_6325"/><feBlend in="SourceGraphic" in2="effect1_dropShadow_10715_6325" result="shape"/></filter></defs></svg>
